public/images/svgs/instagram-c.svg

<svg xmlns="http://www.w3.org/2000/svg" viewBox="0 0 60.1 60.1"><defs><style>.cls-1{fill:#ee4b7a;}</style></defs><title>instagram</title><g id="Capa_2" data-name="Capa 2"><g id="Capa_1-2" data-name="Capa 1"><g id="Group_321" data-name="Group 321"><g id="Group_320" data-name="Group 320"><path id="Path_928" data-name="Path 928" class="cls-1" d="M42.2,0H17.9A17.88,17.88,0,0,0,0,17.9V42.2A17.88,17.88,0,0,0,17.9,60.1H42.2A17.88,17.88,0,0,0,60.1,42.2V17.9A17.88,17.88,0,0,0,42.2,0ZM54.1,42.1A11.82,11.82,0,0,1,42.3,53.9H18A11.82,11.82,0,0,1,6.2,42.1V17.8A11.82,11.82,0,0,1,18,6H42.3A11.82,11.82,0,0,1,54.1,17.8Z"/><path id="Path_929" data-name="Path 929" class="cls-1" d="M30.1,14.5A15.5,15.5,0,1,0,45.6,30h0A15.45,15.45,0,0,0,30.1,14.5Zm0,25A9.5,9.5,0,1,1,39.6,30h0A9.56,9.56,0,0,1,30.1,39.5Z"/><circle id="Ellipse_33" data-name="Ellipse 33" class="cls-1" cx="45.7" cy="14.6" r="3.7"/></g></g></g></g></svg>

<?xml version="1.0" encoding="utf-8"?>
<!-- Generator: Adobe Illustrator 22.0.0, SVG Export Plug-In . SVG Version: 6.00 Build 0)  -->
<svg version="1.1" id="Capa_1" xmlns="http://www.w3.org/2000/svg" xmlns:xlink="http://www.w3.org/1999/xlink" x="0px" y="0px"
	 viewBox="0 0 60.1 60.1" style="enable-background:new 0 0 60.1 60.1;" xml:space="preserve">
<style type="text/css">
	.st0{fill:#EE4B7A;}
</style>
<g id="instagram-c">
	<path id="Path_928" class="st0" d="M42.2,0H17.9C8,0,0,8,0,17.9c0,0,0,0,0,0v24.3c0,9.9,8,17.9,17.9,17.9c0,0,0,0,0,0h24.3
		c9.9,0,17.9-8,17.9-17.9c0,0,0,0,0,0V17.9C60.1,8,52.1,0,42.2,0C42.2,0,42.2,0,42.2,0z M54.1,42.1c0,6.5-5.3,11.8-11.8,11.8H18
		c-6.5,0-11.8-5.3-11.8-11.8V17.8C6.2,11.3,11.5,6,18,6h24.3c6.5,0,11.8,5.3,11.8,11.8V42.1z"/>
	<path id="Path_929" class="st0" d="M30.1,14.5c-8.6,0-15.5,6.9-15.5,15.5s6.9,15.5,15.5,15.5S45.6,38.6,45.6,30l0,0l0,0
		c0-8.5-6.9-15.5-15.4-15.5C30.2,14.5,30.1,14.5,30.1,14.5z M30.1,39.5c-5.2,0-9.5-4.3-9.5-9.5s4.3-9.5,9.5-9.5s9.5,4.3,9.5,9.5v0
		l0,0C39.6,35.2,35.3,39.5,30.1,39.5z"/>
	<circle id="Ellipse_33" class="st0" cx="45.7" cy="14.6" r="3.7"/>
</g>
</svg>
